!!!!SEGMENT: pl-kk--kk-i-193_anonim--iste-confessor.krn
!!!cenid: 16xx:1958
!!!COM: Anonim
!!!COM-rismID: pe30004985
!!!CDT:
!!!CNT:
!!!OTL: Iste confessor
!!!PDT:
!!!AGN: Sacred; Hymns
!!!YEC: Copyright 2022 Narodowy Instytut Fryderyka Chopina (https://polishscores.org)
!!!YEM: License CC-BY-4.0 (https://creativecommons.org/licenses/by/4.0)
!!!SMS-siglum: PL-Kk
!!!SMS-shelfmark: Kk.I.193
!!!SMS-variant: [Basso] PL-Kk Kk.I.193:9-10
!!!SMS-altvar: [Basso] PL-Kk Kk.I.193:7-8
!!!SMS-shelfwork: W
!!!NIFC-rismSourceID: 1001151886
!!!NIFC-rismChildID: 1001151886
!!!NIFC-islandoraID: pl-kk:4061
!!!URL-pdf-islandora: https://repozytorium.nifc.pl/islandora/object/pl-kk:4061/datastream/PDF/view
!!!URL-scan: https://polish.musicsources.pl/pl/lokalizacje/galeria/rekopisy/5821/1 @EN{Scan on Polish Music Sources Website} @PL{Skany w portalu Dziedzictwo Muzyki Polskiej w otwartym dostępie}
!!!IIIF:
!!!ONB-nifc: UWAGA: SATB. S: skan 1-2, A: skan 3-4, T: skan 5-6, B: skan 7-8 i 9-10. Sugeruję użycie drugiego odpisu B (9-10).
!!!AIN: 1 alto 1 bass 1 soprn 1 tenor
!!!key: G:mix
**kern	**text	**fba	**kern	**text	**text	**kern	**text	**text	**kern	**text
*part4	*part4	*	*part3	*part3	*part3	*part2	*part2	*part2	*part1	*part1
*staff4	*staff4	*	*staff3	*staff3	*staff3	*staff2	*staff2	*staff2	*staff1	*staff1
*ICvox	*	*	*ICvox	*	*	*ICvox	*	*	*ICvox	*
*Ibass	*	*	*Itenor	*	*	*Ialto	*	*	*Isoprn	*
*I"[Bas]	*	*	*I"Tenore	*	*	*I"[Alto]	*	*	*I"[Soprano]	*
*I'[B]	*	*	*I'T	*	*	*I'[A]	*	*	*I'[S]	*
*clefF4	*	*	*clefC4	*	*	*clefC3	*	*	*clefC1	*
*k[]	*	*	*k[]	*	*	*k[]	*	*	*k[]	*
*G:mix	*	*	*G:mix	*	*	*G:mix	*	*	*G:mix	*
*M3/1	*	*	*M3/1	*	*	*M3/1	*	*	*M3/1	*
=1	=1	=1	=1	=1	=1	=1	=1	=1	=1	=1
*2\right	*	*	*2\right	*	*	*2\right	*	*	*2\right	*
1G	Is-	.	1B	Iſ-	.	1g	Is-	.	1dd	Is-
1G	-te	.	1B	-te	.	1g	-te	.	1dd	-te
1C	Con-	.	1c	Con-	.	1g	con-	.	1ee	con-
=2	=2	=2	=2	=2	=2	=2	=2	=2	=2	=2
0G	-feſ-	.	0B	-feſ-	.	0g	-fes-	.	0dd	-fes-
1G	-sor	.	1B	-sor	.	1g	-sor	.	1dd	-sor
=3	=3	=3	=3	=3	=3	=3	=3	=3	=3	=3
1.C	Do-	.	1.c	Do-	.	1.g	Do-	.	1.ee	Do-
2D/	-mi-	.	2A/	-mi-	.	2f\	-mi-	.	2dd\	-mi-
1E	-ni	.	1G	-ni	.	1e	-ni	.	1cc	-ni
=4	=4	=4	=4	=4	=4	=4	=4	=4	=4	=4
!	!	!	!	!	!	!	!	!	!LO:TX:t=P:problem:kolor?	!
1G	co-	.	1G	.	.	1d	co-	.	1b	co-
!	!	!	!	!	!	!	!	!	!LO:TX:t=P:problem:kolor?	!
0D	-len-	.	1G	co-	.	0d	-len-	.	0a	-len-
!	!	!	!LO:TX:b:t=P:problem:# below	!	!	!	!	!	!	!
.	.	.	1F#	-len-	.	.	.	.	.	.
=5	=5	=5	=5	=5	=5	=5	=5	=5	=5	=5
0.GG	-tes	.	0.G	-tes	.	0.d	-tes	.	0.b	-tes
=6-	=6	=6	=6	=6	=6	=6	=6	=6	=6	=6
1G	Qvem	.	1d	Quem	.	1g	Quem	.	1b	Quem
1G	pi-	.	1d	pi-	.	1g	pi-	.	1b	pi-
1E	-e	6|	1G	-e	.	1g	-e	.	1cc#X	-e
=7	=7	=7	=7	=7	=7	=7	=7	=7	=7	=7
0D	lau-	.	0A	lau-	.	0f	lau-	.	0dd	lau-
1D	-dant	-	1A	-dant	.	1f	-dant	.	1a	-dant
*	*	*	*custos:c	*	*	*	*	*	*	*
!	!	!	!LO:LB:g=original	!	!	!	!	!	!	!
=8-	=8	=8	=8	=8	=8	=8	=8	=8	=8	=8
1.A	po-	.	1.c#X	po-	.	1.e	po-	.	1.a	po-
2A\	-pu-	.	2c#\	-pu-	.	2e\	-pu-	.	2a\	-pu-
1A	-li	.	1c#	-li	.	1e	-li	.	1a	-li
*	*	*	*	*	*	*custos:d	*	*	*	*
!	!	!	!	!	!	!LO:LB:g=original	!	!	!LO:LB:g=original	!
=9	=9	=9	=9	=9	=9	=9	=9	=9	=9	=9
!	!	!	!	!	!	!	!	!	!LO:TX:t=P:problem:kolor?	!
1B-X	per	.	1d	per	.	1d	per	.	1g	per
0A	Or-	.	1d	Or-	.	0e	or-	.	0a	Or-
!	!	!	!LO:TX:b:t=P:problem:# below	!	!	!	!	!	!	!
.	.	.	1c#X	-bem	.	.	.	.	.	.
=10	=10	=10	=10	=10	=10	=10	=10	=10	=10	=10
0.D	-bem	.	0.d	.	.	0.f#i	-bem	.	0.a	-bem
!LO:LB:g=original	!	!	!	!	!	!	!	!	!	!
=11-	=11	=11	=11	=11	=11	=11	=11	=11	=11	=11
1A	hac	.	1.c	Hac	.	1e	Hac	.	1a	Hac
1A	di-	.	.	.	.	1e	di-	.	1a	di-
.	.	.	2c\	di-	.	.	.	.	.	.
1G	-e	.	1d	-e	.	1g	-e	.	1b	-e
=12	=12	=12	=12	=12	=12	=12	=12	=12	=12	=12
0C	lae-	.	0e	lae-	.	0g	lae-	.	0cc	lae-
1C	-tus	.	1e	-tus	.	1g	-tus	.	1cc	-tus
=13	=13	=13	=13	=13	=13	=13	=13	=13	=13	=13
1.AA	me-	.	1.c	me-	.	1r	.	.	1.ee	me-
.	.	.	.	.	.	1.a	me-	.	.	.
2BB/	-ru-	.	2B\	-ru-	.	.	.	.	2dd\	-ru-
1C	-it	.	2A/	-it	.	.	.	.	1cc	-it
.	.	.	2A/	su-	Be-	2g\	-ru-	.	.	.
=14	=14	=14	=14	=14	=14	=14	=14	=14	=14	=14
!	!	!	!LO:TX:t=P:problem:inną ręką dopisany tekst: Beata Vulnera (pod supremor laudis ho-) i Vulnera Xi (nad -nores)	!	!	!	!	!	!	!
1D	su-	.	0A	-pre-	-a-	2f\	-it	.	1b	su-
!	!	!	!	!	!	!LO:TX:t=P:problem:tekst Beata.. dopisany inną ręką nad tekstem Supremos...	!	!	!	!
.	.	.	.	.	.	2f\	Su-	Be-	.	.
0E	-pre-	.	.	.	.	0e	-pre-	-a-	0b	-pre-
!	!	!	!LO:TX:b:t=P:problem:# below	!	!	!	!	!	!	!
.	.	.	1G#X	-mos	-ta	.	.	.	.	.
=15	=15	=15	=15	=15	=15	=15	=15	=15	=15	=15
!	!	!	!	!	!	!LO:TX:t=P:problem:# nad pięciolinią dopisany inną ręką	!	!	!	!
!	!	!	!	!	!	!LO:SIC:v:s=0.c#	!	!	!	!
0.AA	-mos	.	0.A	.	Vul-	0.c	-mos	-ta	0.a	-mos
=16	=16	=16	=16	=16	=16	=16	=16	=16	=16	=16
1.D	lau-	.	1d	lau-	-ne-	1f#Xi	Lau-	Vul-	1.a	lau-
.	.	.	1d	-dis	-ra	1f#	-dis	-ne-	.	.
2D/	-dis	.	.	.	.	.	.	.	2a\	-dis
1BB	.	.	1d	ho-	.	1g	ho-	.	1dd	ho-
*	*	*	*	*	*	*	*	*	*custos:cc	*
!	!	!	!LO:LB:g=original	!	!	!	!	!	!LO:LB:g=original	!
=17	=17	=17	=17-	=17	=17	=17	=17	=17	=17	=17
2C/	ho-	.	1.e	-no-	Vul-	1.g	-no-	-ra	2cc\	-no-
2D/	-no-	.	.	.	.	.	.	.	4b\	.
.	.	.	.	.	.	.	.	.	4a\	.
2E/	.	.	.	.	.	.	.	.	1.g	.
2F/	.	.	4d\	.	.	4f\	.	.	.	.
.	.	.	4c\	.	.	4e\	.	.	.	.
!	!	!	!LO:TX:t=P:problem:2B poprawiona na 1B	!	!	!	!	!	!	!
1G	.	.	[y1B	.	-ne-	1.d	.	Vul-	.	.
.	.	.	.	.	.	.	.	.	2a\	.
=18	=18	=18	=18	=18	=18	=18-	=18	=18	=18	=18
!	!	!	!LO:N:xstem:cue:vis=4	!	!	!	!	!	!	!
1.GG	.	.	2B\]	.	.	.	.	.	1.b	.
.	.	.	2c\	.	-ra	2c/	.	.	.	.
.	.	.	2d\	.	.	2B/	.	.	.	.
2AA/	.	.	2c\	.	.	2c/	.	-ne-	2a\	.
!	!	!	!	!	!	!	!	!	!LO:TX:t=P:problem:kreska taktowa przez nutę	!
2BB/	.	.	1B	.	.	2d\	.	-ra	0g	.
2C/	.	.	.	.	.	2e\	.	.	.	.
!	!	!	!	!	!	!LO:LB:g=original	!	!	!	!
=19	=19	=19	=19	=19	=19	=19-	=19	=19	=19	=19
0.D	.	.	0.A	-res	(Chri-	0.d	-res	(Chri-	.	.
.	.	.	.	.	.	.	.	.	1g	.
.	.	.	.	.	.	.	.	.	1f#X	-res
=20-	=20	=20	=20	=20	=20	=20-	=20	=20	=20-	=20
!	!	!	!	!	!	!LO:TX:t=P:problem:kropka dopisana inną ręką	!	!	!LO:TX:t=P:problem:kropka dopisana inną ręką	!
!	!	!	!	!	!	!LO:N:vis=0	!	!	!LO:N:vis=0	!
0.GG	-res	.	0.Bl;	.	-sti)	0.d;<	.	-sti)	0.g;<	.
!LO:LB:g=original	!	!	!LO:LB:g=original	!	!	!LO:LB:g=original	!	!	!LO:LB:g=original	!
=21||	=21||	=21||	=21||-	=21||-	=21||	=21||	=21||	=21||	=21||	=21||
*M3/1	*	*	*M3/1	*	*	*M3/1	*	*	*M3/1	*
1G	Qui	.	1d	Qui	.	1g	Qui	.	1b	Qui
1G	pi-	.	1d	Pi-	.	1g	pi-	.	1b	pi-
1A	-us	.	1c	-us	.	1e	-us	.	1a	-us
=22	=22	=22	=22	=22	=22	=22	=22	=22	=22	=22
0G	pru-	.	0d	pru-	.	0g	pru-	.	0b	pru-
1G	-dens	.	1d	-dens	.	1g	-dens	.	1b	-dens
=23	=23	=23	=23	=23	=23	=23	=23	=23	=23	=23
1.C	hu-	.	1.e	hu-	.	1.g	hu-	.	1.cc	hu-
2BB/	-mi-	.	2d\	-mi-	.	2g\	-mi-	.	2g/	-mi-
1AA	-lis	.	1c	-lis	.	1f#X	-lis	.	1a	-lis
=24	=24	=24	=24	=24	=24	=24	=24	=24	=24	=24
1GG	pu-	.	1d	pu-	.	1g	pu-	.	1b	pu-
!	!	!	!	!	!	!LO:TX:t=P:problem:łuk dopisany inną ręką	!	!	!	!
0D	-di-	.	0d	-di-	.	1g	-di-	.	0a	-di-
.	.	.	.	.	.	1f#X	-cus	.	.	.
=25	=25	=25	=25	=25	=25	=25	=25	=25	=25	=25
0.GG	-cus	.	0.d	-cus	.	0.g	.	.	0.b	-cus
=26	=26	=26	=26	=26	=26	=26	=26	=26	=26	=26
1G	So-	.	1d	So-	.	1g	So-	.	1b	So-
1G	-bri-	.	1d	-bri-	.	1g	-bri-	.	1b	-bri-
!	!	!	!	!	!	!	!	!	!LO:TX:t=P:problem:# nad pięciolinią dopisany inną ręką	!
!	!	!	!	!	!	!	!	!	!LO:SIC:v:s=1cc#	!
1E	-am	6|	1G	-am	.	1g	-am	.	1cc	-am
=27	=27	=27	=27	=27	=27	=27	=27	=27	=27	=27
!	!	!	!	!	!	!LO:TX:t=P:problem:n nad pięciolinią dopisany inną ręką	!	!	!	!
0D	du-	-	0A	du-	.	0f	du-	.	0dd	du-
1D	-xit	.	1d	-xit	.	1f	-xit	.	1a	-xit
=28	=28	=28	=28	=28	=28	=28	=28	=28	=28	=28
!	!	!	!LO:SIC:v:s=1.c#	!	!	!	!	!	!	!
1.A	Si-	.	1.c	Si-	.	1.e	Si-	.	1.a	ſi-
2A\	-ne	.	2c#X\i	-ne	.	2e\	-ne	.	2a\	-ne
1A	la-	.	1c#	la-	.	1e	la-	.	1a	la-
!	!	!	!LO:LB:g=original	!	!	!LO:LB:g=original	!	!	!LO:LB:g=original	!
=29	=29	=29	=29-	=29	=29	=29	=29	=29	=29	=29
!	!	!	!	!	!	!LO:TX:t=P:problem:kolor?	!	!	!	!
1F	-be	.	1d	-be	.	1f	-be	.	1a	-be
0E	Vi-	.	1d	Vi-	.	0g	Vi-	.	0ee	Vi-
.	.	.	1c#Xi	-tam	.	.	.	.	.	.
=30	=30	=30	=30	=30	=30	=30	=30	=30	=30	=30
0.D	-tam	.	0.d	.	.	0.f#Xi	-tam	.	0.a	-tam
!LO:LB:g=original	!	!	!	!	!	!	!	!	!	!
=31-	=31	=31	=31	=31	=31	=31	=31	=31	=31	=31
1G	Do-	.	1B	Do-	.	1d	Do-	.	1g	Do-
!	!	!	!	!	!	!LO:TX:t=P:problem:n dopisany inną ręką	!	!	!	!
1F	-nec	.	1c	-nec	.	1f	-nec	.	1a	-nec
1D	hu-	.	1d	hu-	.	1f	hu-	.	1b	hu-
=32	=32	=32	=32	=32	=32	=32	=32	=32	=32	=32
0C	-ma-	.	0e	-ma-	.	0g	-ma-	.	0cc	-ma-
1C	-nos	.	1e	-nos	.	1g	-nos	.	1cc	-nos
=33	=33	=33	=33	=33	=33	=33	=33	=33	=33	=33
1.FF	a-	.	1.c	a-	.	1.f	a-	.	1.a	a-
2FF/	-ni-	.	2c\	-ni-	.	2f\	-ni-	.	2a\	-ni-
1AA	-ma-	.	1A	-ma-	.	1c	-ma-	.	1f	-ma-
=34	=34	=34	=34	=34	=34	=34	=34	=34	=34	=34
1C	-uit	.	1G	-uit	.	1c	-uit	.	1e	-uit
0GG	au-	.	0G	au-	.	1c	au-	.	0d	au-
.	.	.	.	.	.	1B	-re	.	.	.
=35-	=35	=35	=35	=35	=35	=35	=35	=35	=35	=35
0.C	-re	.	0.G	-re	.	0.c	.	.	0.e	-re
=36	=36	=36	=36	=36	=36	=36	=36	=36	=36	=36
1AA	Spi-	.	1A	Spi-	.	1c	Spi-	.	1e	spi-
1D	-ri-	.	1A	-ri-	.	1d	-ri-	.	1f	-ri-
1BB	-tus	n	1B	-tus	.	1d	-tus	.	1g	-tus
=37	=37	=37	=37	=37	=37	=37	=37	=37	=37	=37
2AA/	ar-	.	(0c	ar-	.	0.e	ar-	.	0a	ar-
2BB/	.	.	.	.	.	.	.	.	.	.
2C/	.	.	.	.	.	.	.	.	.	.
2D/	.	.	.	.	.	.	.	.	.	.
1E	.	.	1B)	-[[tus]]-	.	.	.	.	1g#Xi	-tus
*	*	*	*custos:c	*	*	*	*	*	*	*
!	!	!	!LO:LB:g=original	!	!	!	!	!	!	!
=38	=38	=38	=38-	=38	=38	=38	=38	=38	=38	=38
0.AA	-tus	.	0.c	-tus	.	0.e	-tus	.	0a	.
.	.	.	.	.	.	.	.	.	1cc#Xi	spi-
!	!	!	!	!	!	!LO:LB:g=original	!	!	!LO:LB:g=original	!
=39-	=39	=39	=39	=39	=39	=39	=39	=39	=39	=39
1D	Spi-	.	1d	Spi-	.	1f	Spi-	.	1dd	-ri-
1G	-ri-	.	1d	-ri-	.	1g	-ri-	.	1dd	-tus
!	!	!	!	!	!	!	!	!	!LO:TX:t=P:problem:łuk dopisany inną ręką	!
!	!	!	!	!	!	!	!	!	!LO:SIC:v:s=[1cc#	!
1E	-tus	.	1G	-tus	.	1g	-tus	.	[y1cc	.
=40	=40	=40	=40	=40	=40	=40	=40	=40	=40	=40
!	!	!	!	!	!	!	!	!	!LO:SIC:v:s=2cc#\]	!
!	!	!	!	!	!	!	!	!	!LO:N:xstem:cue:vis=4	!
1.D	.	.	0A	ar-	.	1.f	.	.	2cc\]	.
.	.	.	.	.	.	.	.	.	2dd\	ar-
.	.	.	.	.	.	.	.	.	1.ee	.
2E\	ar-	.	.	.	.	2g\	ar-	.	.	.
2F\	.	.	0d	.	.	[y1a	.	.	.	.
!	!	!	!	!	!	!	!	!	!LO:TX:t=P:problem:\right	!
2G\	.	.	.	.	.	.	.	.	4dd\	.
!	!	!	!	!	!	!	!	!	!LO:TX:t=P:problem:wykreślony takt:0.b	!
!	!	!	!	!	!	!	!	!	!LO:SIC:v:s=4cc#\	!
.	.	.	.	.	.	.	.	.	4cc\	.
=41-	=41	=41	=41-	=41	=41	=41	=41	=41	=41	=41
!	!	!	!	!	!	!LO:N:xstem:cue:vis=4	!	!	!	!
0.A	.	.	.	.	.	2a\]	.	.	0.cc#X	-tus
.	.	.	.	.	.	4g\	.	.	.	.
.	.	.	.	.	.	4f\	.	.	.	.
.	.	.	0c#X	.	.	0e	.	.	.	.
=42-	=42	=42	=42-	=42	=42	=42	=42	=42	=42	=42
!	!	!	!	!	!	!LO:TX:t=P:problem:kropka dopisana inną ręką	!	!	!LO:TX:t=P:problem:takt dopisany inną ręką	!
!	!	!	!	!	!	!LO:N:vis=0	!	!	!	!
0.D	-tus	.	0.dl;	-tus	.	0.f#X;<	-tus	.	0.dd;<	.
!LO:LB:g=original	!	!	!LO:LB:g=original	!	!	!LO:LB:g=original	!	!	!LO:LB:g=original	!
=43||	=43||	=43||	=43||-	=43||-	=43||	=43||	=43||	=43||	=43||	=43||
*M3/1	*	*	*M3/1	*	*	*M3/1	*	*	*M3/1	*
1G	Cu-	.	1B	Cu-	.	1g	Cu-	.	1dd	Cu-
1G	-ius	.	1B	-ius	.	1g	-ius	.	1dd	-ius
1C	ob	.	1cny	ob	.	1g	ob	.	1ee	ob
=44	=44	=44	=44	=44	=44	=44	=44	=44	=44	=44
0G	pres-	.	0B	praes-	.	0g	pres-	.	0dd	pres-
1G	-tans	.	1B	-tans	.	1g	-tans	.	1dd	-tans
=45	=45	=45	=45	=45	=45	=45	=45	=45	=45	=45
1.C	me-	.	1.c	me-	.	1.g	me-	.	1.ee	me-
!	!	!	!	!	!	!	!	!	!LO:N:vis=2.	!
2D/	-ri-	.	2A/	-ri-	.	2f\	-ri-	.	2dd\	-ri-
1E	-tum	.	1G	-tum	.	1e	-tum	.	1cc	-tum
=46	=46	=46	=46	=46	=46	=46	=46	=46	=46	=46
1G	fre-	.	1G	fre-	.	1d	fre-	.	1b	fre-
0D	-qven-	.	1G	-quen-	.	0d	-quen-	.	0a	-quen-
!	!	!	!LO:TX:b:t=P:problem:# below	!	!	!	!	!	!	!
.	.	.	1F#X	.	.	.	.	.	.	.
=47	=47	=47	=47	=47	=47	=47	=47	=47	=47	=47
0.GG	-ter	.	0.G	-ter	.	0.d	-ter	.	0.b	-ter
=48	=48	=48	=48	=48	=48	=48	=48	=48	=48	=48
1G	ae-	.	1d	ae-	.	1g	ae-	.	1b	ae-
1G	-gra	.	1d	-gra	.	1g	-gra	.	1b	-gra
1E	q(uae)	.	1G	q(uae)	.	1g	q(uae)	.	1cc#X	q(uae)
=49	=49	=49	=49	=49	=49	=49	=49	=49	=49	=49
!	!	!	!	!	!	!LO:TX:t=P:problem:n nad pięciolinią dopisany inną ręką	!	!	!	!
0D	paſ-	.	0A	paſ-	.	0f	pas-	.	0dd	paſ-
1D	-sim	.	1A	-sim	.	1f	-sim	.	1a	-sim
=50	=50	=50	=50	=50	=50	=50	=50	=50	=50	=50
1.A	ia-	.	1.c#Xi	ia-	.	1.e	ia-	.	1.a	ia-
2A\	-cu-	.	2c#\	-cu-	.	2e\	-cu-	.	2a\	-cu-
1A	-e-	.	1c#	-e-	.	1e	-e-	.	1a	-e-
!	!	!	!LO:LB:g=original	!	!	!	!	!	!LO:LB:g=original	!
=51	=51	=51	=51-	=51	=51	=51	=51	=51	=51-	=51
1B-X	-re	.	1d	-re	.	1d	-re	.	1g	-re
0A	mem-	.	1d	.	.	0e	mem-	.	0a	mem-
!	!	!	!LO:TX:b:t=P:problem:# below	!	!	!	!	!	!	!
.	.	.	1c#X	mem-	.	.	.	.	.	.
=52	=52	=52	=52	=52	=52	=52	=52	=52	=52	=52
0.D	-bra	.	0.d	-bra	.	0.f#Xi	-bra	.	0.a	-bra
!LO:LB:g=original	!	!	!	!	!	!LO:LB:g=original	!	!	!	!
=53	=53	=53	=53	=53	=53	=53-	=53	=53	=53	=53
1A	Vi-	.	1.c	Vi-	.	1e	Vi-	.	1a	Vi-
1A	-ri-	.	.	.	.	1e	-ri-	.	1a	-ri-
!	!	!	!LO:TX:t=P:problem:2d\ poprawione na 2c\	!	!	!	!	!	!	!
.	.	.	2c\	-ri-	.	.	.	.	.	.
1G	-bus	.	1d	-bus	.	1g	-bus	.	1b	-bus
=54	=54	=54	=54	=54	=54	=54	=54	=54	=54	=54
0C	mor-	.	0e	mor-	.	0g	mor-	.	0cc	mor-
1C	-bi	.	1e	-bi	.	1g	-bi	.	1cc	-bi
=55	=55	=55	=55	=55	=55	=55	=55	=55	=55	=55
1.AA	do-	.	1.c	do-	.	1r	.	.	1.ee	do-
.	.	.	.	.	.	1.a	do-	.	.	.
2BB/	-mi-	.	2B\	mi-	.	.	.	.	2dd\	-mi-
1C	-tis	.	2A\	-tis	.	.	.	.	1cc	-tis
.	.	.	2A\	.	.	2g\	-mi-	.	.	.
=56	=56	=56	=56	=56	=56	=56	=56	=56	=56	=56
1D	Sa-	.	0A	Sa-	.	2f\	-tis	.	1b	Sa-
.	.	.	.	.	.	2f\	Sa-	.	.	.
0E	-lu-	.	.	.	.	0e	-lu-	.	0b	-lu-
!	!	!	!LO:TX:b:t=P:problem:# below	!	!	!	!	!	!	!
.	.	.	1G#X	-lu-	.	.	.	.	.	.
=57	=57	=57	=57-	=57	=57	=57	=57	=57	=57	=57
!	!	!	!	!	!	!LO:TX:t=P:problem:# nad pięciolinią dopisany inną ręką	!	!	!	!
!	!	!	!	!	!	!LO:SIC:v:s=0.c#	!	!	!	!
0.AA	-ti	.	0.A	-ti	.	0.c	-ti	.	0.a	-ti
*	*	*	*custos:d	*	*	*	*	*	*	*
!	!	!	!LO:PB:g=original	!	!	!	!	!	!LO:PB:g=original	!
=58	=58	=58	=58	=58	=58	=58	=58	=58	=58	=58
1D	res-	.	1d	res-	.	1f#Xi	Res-	.	1a	res-
1D	-ti-	.	1d	-ti-	.	1f#	-ti-	.	1a	-ti-
1BB	-tu-	.	1d	-tu-	.	1g	-tu-	.	1dd	-tu-
=59	=59	=59	=59	=59	=59	=59	=59	=59	=59	=59
2C/	.	.	1.e	-un-	.	1.g	-un-	.	2cc\	-un-
2D/	-un-	.	.	.	.	.	.	.	4b\	.
.	.	.	.	.	.	.	.	.	4a\	.
2E/	.	.	.	.	.	.	.	.	1.g	.
2F/	.	.	4d\	.	.	4f\	.	.	.	.
.	.	.	4c\	.	.	4e\	.	.	.	.
1G	.	.	[y1B	.	.	1.d	.	.	.	.
.	.	.	.	.	.	.	.	.	2a\	.
=60	=60	=60	=60	=60	=60	=60-	=60	=60	=60	=60
!	!	!	!LO:N:xstem:cue:vis=4	!	!	!	!	!	!	!
1.GG	.	.	2B\]	.	.	.	.	.	1.b	.
.	.	.	2c\	.	.	2c/	.	.	.	.
.	.	.	2d\	.	.	2B/	.	.	.	.
2AA/	.	.	2c\	.	.	2c/	.	.	2a\	.
2BB/	.	.	1B	.	.	2d\	.	.	0g	.
2C/	.	.	.	.	.	2e\	.	.	.	.
=61	=61	=61	=61	=61	=61	=61	=61	=61	=61-	=61
0.D	-tur.	.	0.A	.	.	0.d	.	.	.	.
.	.	.	.	.	.	.	.	.	1g	.
!	!	!	!	!	!	!	!	!	!LO:TX:b:t=P:problem:# below	!
.	.	.	.	.	.	.	.	.	1f#X	-tur
=62-	=62	=62	=62-	=62	=62	=62-	=62	=62	=62-	=62
!	!	!	!LO:N:vis=00.	!	!	!	!	!	!LO:TX:t=P:problem:kropka dopisana inną ręką	!
!	!	!	!	!	!	!	!	!	!LO:N:vis=0	!
0.GG	.	.	0.B;<	-tur	.	0.d	-tur	.	0.g;<	.
!	!	!	!	!	!	!	!	!	!LO:TX:t=P:problem:wykreślony fragment	!
!LO:LB:g=original	!	!	!LO:LB:g=original	!	!	!LO:PB:g=original	!	!	!LO:LB:g=original	!
=63||-	=63||-	=63||-	=63||-	=63||-	=63||	=63||	=63||	=63||	=63||	=63||
*M3/1	*	*	*M3/1	*	*	*M3/1	*	*	*M3/1	*
1G	Nos-	.	1d	Nos-	.	1g	Nos-	.	1b	Nos-
1G	-ter	.	1d	-ter	.	1g	-ter	.	1b	-ter
1A	hinc	.	1c	hinc	.	1e	hinc	.	1a	hinc
=64	=64	=64	=64	=64	=64	=64	=64	=64	=64	=64
0G	il-	.	0d	il-	.	0g	il-	.	0b	il-
1G	-li	.	1d	-li	.	1g	-li	.	1b	-li
=65	=65	=65	=65	=65	=65	=65	=65	=65	=65	=65
1.C	Cho-	.	1.e	cho-	.	1.g	Cho-	.	1.cc	Cho-
2BB/	-rus	.	2d\	-rus	.	2g\	-rus	.	2g/	-rus
1AA	ob-	.	1c	ob-	.	1f#X	ob-	.	1a	ob-
=66	=66	=66	=66	=66	=66	=66	=66	=66	=66	=66
1GG	-se-	.	1d	-se-	.	1g	-se-	.	1b	-se-
0D	-quen-	.	0d	-quen-	.	1g	-quen-	.	0a	-quen-
.	.	.	.	.	.	1f#X	-tem	.	.	.
=67	=67	=67	=67	=67	=67	=67	=67	=67	=67	=67
0.GG	-tem	.	0.d	-tem	.	0.g	.	.	0.b	-tem
=68	=68	=68	=68	=68	=68	=68	=68	=68	=68	=68
1G	Con-	.	1d	con-	.	1g	Con-	.	1b	Con-
1G	-ci-	.	1d	-ci-	.	1g	-ci-	.	1b	-ci-
!	!	!	!	!	!	!	!	!	!LO:TX:t=P:problem:# nad pięciolinią dopisany inną ręką	!
!	!	!	!	!	!	!	!	!	!LO:SIC:v:s=1cc#	!
1E	-nit	6|	1G	-nit	.	1g	-nit	.	1cc	-nit
=69	=69	=69	=69	=69	=69	=69	=69	=69	=69	=69
0D	lau-	.	0A	lau-	.	0f	lau-	.	0dd	lau-
1D	-dem	.	1A	-dem	.	1f	-dem	.	1a	-dem
!	!	!	!LO:LB:g=original	!	!	!	!	!	!	!
=70	=70	=70	=70-	=70	=70	=70	=70	=70	=70	=70
1.A	ce-	.	1.c#X	cae-	.	1.e	ce-	.	1.a	cae-
2A\	-le-	.	2c#\	-le-	.	2e\	-le-	.	2a\	-le-
1A	-bres-	.	1c#	-bres-	.	1e	-bres-	.	1a	-bres-
!	!	!	!	!	!	!LO:LB:g=original	!	!	!	!
=71	=71	=71	=71	=71	=71	=71	=71	=71	=71	=71
1F	-q(uae)	.	1d	-q(uae)	.	1f	-q(uae)	.	1a	-q(uae)
0E	pal-	.	1d	pal-	.	0g	pal-	.	0ee	pal-
!	!	!	!LO:TX:b:t=P:problem:# below	!	!	!	!	!	!	!
.	.	.	1c#X	-mas	.	.	.	.	.	.
!	!	!	!	!	!	!	!	!	!LO:LB:g=original	!
=72	=72	=72	=72	=72	=72	=72	=72	=72	=72-	=72
0.D	-mas	.	0.d	.	.	0.f#Xi	-mas	.	0.a	-mas
!LO:LB:g=original	!	!	!	!	!	!	!	!	!	!
=73	=73	=73	=73	=73	=73	=73	=73	=73	=73	=73
1G	Ut	.	1B	Vt	.	1d	Vt	.	1g	Vt
1F	pi-	.	1c	pi-	.	1f	pi-	.	1a	pi-
1D	-is	.	1d	-is	.	1f	-is	.	1b	-is
=74	=74	=74	=74	=74	=74	=74	=74	=74	=74	=74
0C	e-	.	0e	e-	.	0g	e-	.	0cc	e-
1C	-ius	.	1e	-ius	.	1g	-ius	.	1cc	-ius
=75	=75	=75	=75	=75	=75	=75	=75	=75	=75	=75
1.FF	me-	.	1.c	prae-	.	1.f	pre-	.	1.a	pre-
2FF/	-ri-	.	2c\	-ci-	.	2f\	-ci-	.	2a\	-ci-
1AA	-tis	.	1A	-bus	.	1c	-bus	.	1f	-bus
=76	=76	=76	=76	=76	=76	=76	=76	=76	=76	=76
1C	iu-	.	1G	iu-	.	1c	iu-	.	1e	iu-
0GG	-ue-	.	0G	-ue-	.	1c	-ue-	.	0d	-ue-
!	!	!	!	!	!	!LO:SIC:v:s=1B	!	!	!	!
.	.	.	.	.	.	1B#Xi	-mur	.	.	.
=77-	=77	=77	=77	=77	=77	=77	=77	=77	=77	=77
0.C	-mur	.	0.G	-mur	.	0.c	.	.	0.e	-mur
*	*	*	*custos:A	*	*	*	*	*	*	*
!	!	!	!LO:LB:g=original	!	!	!	!	!	!	!
=78	=78	=78	=78	=78	=78	=78	=78	=78	=78	=78
1AA	om-	.	1A	om-	.	1c	Om-	.	1e	om-
1D	-ne	.	1A	-ne	.	1d	-ne	.	1f	-ne
1BB	.	.	1B	per	.	1d	per	.	1g	per
=79	=79	=79	=79	=79	=79	=79	=79	=79	=79	=79
2AA/	per	.	0c	ae-	.	0.e	ae-	.	0a	.
2BB/	ae-	.	.	.	.	.	.	.	.	.
2C/	.	.	.	.	.	.	.	.	.	.
2D/	.	.	.	.	.	.	.	.	.	.
1E	.	.	1B	-uum	.	.	.	.	1g#Xi	ae-
=80	=80	=80	=80	=80	=80	=80	=80	=80	=80-	=80
0.AA	-uum	.	0.c	.	.	0.e	-uum	.	0a	-uum
!	!	!	!	!	!	!	!	!	!LO:TX:t=P:problem:# nad pięciolinią dopisany inną ręką	!
!	!	!	!	!	!	!	!	!	!LO:SIC:v:s=1cc#	!
.	.	.	.	.	.	.	.	.	1cc	.
=81	=81	=81	=81	=81	=81	=81	=81	=81	=81	=81
*	*	*	*	*ij	*	*	*	*	*	*
1D	om-	.	1d	om-	.	1f	om-	.	1dd	om-
1G	-ne	.	1d	-ne	.	1g	-ne	.	1dd	-ne
!	!	!	!	!	!	!	!	!	!LO:SIC:v:s=1.cc#	!
1E	per	.	1G	per	.	1g	per	.	1.cc	p(er)
!	!	!	!	!	!	!LO:LB:g=original	!	!	!	!
=82	=82	=82	=82	=82	=82	=82-	=82-	=82	=82-	=82
1.D	.	.	0A	ae-	.	1.f	ae-	.	.	.
.	.	.	.	.	.	.	.	.	2dd\	ae-
.	.	.	.	.	.	.	.	.	1.ee	-uum
2E\	ae-	.	.	.	.	2g\	.	.	.	.
2F\	.	.	0d	.	.	1.a	.	.	.	.
2G\	.	.	.	.	.	.	.	.	4dd\	.
!	!	!	!	!	!	!	!	!	!LO:SIC:v:s=4cc#\	!
.	.	.	.	.	.	.	.	.	4cc\	.
=83	=83	=83	=83-	=83	=83	=83-	=83	=83	=83-	=83
!	!	!	!	!	!	!	!	!	!LO:SIC:v:s=0.cc#	!
!	!	!	!	!	!	!	!	!	!LO:N:vis=0	!
0.A	.	.	.	.	.	.	.	.	0.b	.
.	.	.	.	.	.	4g\	.	.	.	.
.	.	.	.	.	.	4f\	.	.	.	.
.	.	.	0c#X	.	.	0e	-uum	.	.	.
=84-	=84	=84	=84-	=84	=84	=84	=84	=84	=84-	=84-
!	!	!	!	!	!	!LO:TX:t=P:problem:kropka dopisana inną ręką	!	!	!LO:TX:t=P:problem:nieczytelny zapis (uzupełniono zgodnie z t. 42)	!
!	!	!	!	!	!	!LO:N:vis=0	!	!	!	!
0.D	-uum	.	0.dl;	-uum	.	0.f#X;<	.	.	0.dd;<	.
*	*	*	*	*Xij	*	*	*	*	*	*
!LO:PB:g=original	!	!	!LO:LB:g=original	!	!	!LO:LB:g=original	!	!	!LO:LB:g=original	!
=85||	=85||	=85||	=85||-	=85||-	=85||	=85||	=85||	=85||	=85-	=85||
*M3/1	*	*	*M3/1	*	*	*M3/1	*	*	*M3/1	*
1G	Sit	.	1d	Sit	.	1g	Sit	.	1b	Sit
1G	Sa-	.	1d	Sa-	.	1g	Sa-	.	1b	sa-
1C	-lus	.	1e	-lus	.	1g	-lus	.	1ccny	-lus
=86	=86	=86	=86	=86	=86	=86	=86	=86	=86	=86
0G	il-	.	0d	il-	.	0g	il-	.	0b	il-
1G	-li	.	1d	-li	.	1g	-li	.	1b	-li
=87	=87	=87	=87	=87	=87	=87	=87	=87	=87	=87
1.G	de-	.	1.B	ho-	.	1.g	de-	.	1.dd	de-
2E\	-cus	.	2c\	-nor	.	2g\	-cus	.	2ee\	-cus
1F	at-	.	1A	at-	.	1f	at-	.	1cc	at-
=88	=88	=88	=88	=88	=88	=88	=88	=88	=88	=88
1D	-q(ue)	.	1A	-que	.	1f	-q(ue)	.	1dd	-q(ue)
0E	Vir-	.	1A	.	.	0e	Vir-	.	0b	Vir-
!	!	!	!LO:SIC:v:s=1G#	!	!	!	!	!	!	!
.	.	.	1G	Vir-	.	.	.	.	.	.
=89	=89	=89	=89	=89	=89	=89	=89	=89	=89-	=89
!	!	!	!	!	!	!	!	!	!LO:TX:t=P:problem:# nad pięciolinią dopisany inną ręką	!
!	!	!	!	!	!	!	!	!	!LO:SIC:v:s=0.cc#	!
0.AA	-tus	.	0.A	-tus	.	0.e	-tus	.	0.cc	-tus
=90	=90	=90	=90	=90	=90	=90	=90	=90	=90	=90
1A	Qui	.	1c	Qui	.	1a	Qui	.	1ee	Qui
1A	su-	.	1c	su-	.	1a	Su-	.	1ee	su-
!	!	!	!	!	!	!	!	!	!LO:TX:t=P:problem:n dopisany inną ręką	!
1c	-per	.	1e	-per	.	1g	-per	.	1cc	-per
=91	=91	=91	=91	=91	=91	=91	=91	=91	=91	=91
0G	coe-	.	0d	cae-	.	0g	cae-	.	0b	cae-
1G	-li	.	1d	-li	.	1d	-li	.	1b	-li
!	!	!	!LO:LB:g=original	!	!	!	!	!	!	!
=92	=92	=92	=92-	=92	=92	=92	=92	=92	=92-	=92
1.F	so-	.	1.A	So-	.	1.f	So-	.	1.cc	So-
2E\	-li-	.	2G/	-li-	.	2g\	-li-	.	2cc\	-li-
1F	-o	.	1A	-o	.	1f	-o	.	1a	-o
!	!	!	!	!	!	!LO:LB:g=original	!	!	!LO:LB:g=original	!
=93	=93	=93	=93	=93	=93	=93	=93	=93	=93-	=93
1C	cor-	.	1c	co-	.	1e	co-	.	1g	co-
0G	-ruſ-	.	1c	-rus-	.	0d	-rus-	.	0g	-rus-
.	.	.	1B	-cans	.	.	.	.	.	.
=94	=94	=94	=94	=94	=94	=94	=94	=94	=94	=94
0.C	-cans	.	0.c	.	.	0.e	-cans	.	0.g	-cans
!LO:LB:g=original	!	!	!	!	!	!	!	!	!	!
=95-	=95	=95	=95	=95	=95	=95	=95	=95	=95	=95
00.r	.	.	1.c	To-	.	1.e	To-	.	1g	To-
.	.	.	.	.	.	.	.	.	1g	-ti-
.	.	.	2c\	-ti-	.	2e\	-ti-	.	.	.
.	.	.	1A	-us	.	1f#Xi	-us	.	1a	-us
=96	=96	=96	=96	=96	=96	=96	=96	=96	=96	=96
.	.	.	0G	mun-	.	0g	mun-	.	0b	mun-
.	.	.	1G	-di	.	1g	-di	.	1b	-di
=97	=97	=97	=97	=97	=97	=97	=97	=97	=97	=97
00.r	.	.	1.d	Se-	.	1.f	Se-	.	1.a	ſe-
.	.	.	2c\	-ri-	.	2f\	-ri-	.	2a\	-ri-
.	.	.	1B	-em	.	1g	-em	.	1dd	-em
=98	=98	=98	=98	=98	=98	=98	=98	=98	=98	=98
.	.	.	1A	gu-	.	1a	gu-	.	1cc	gu-
.	.	.	0e	-ber-	.	1a	-ber-	.	0b	-ber-
!	!	!	!	!	!	!LO:SIC:v:s=1g#	!	!	!	!
.	.	.	.	.	.	1g	-nat	.	.	.
=99	=99	=99	=99-	=99	=99	=99	=99	=99	=99	=99
!	!	!	!	!	!	!	!	!	!LO:TX:t=P:problem:# nad pięciolinią dopisany inną ręką	!
!	!	!	!	!	!	!	!	!	!LO:SIC:v:s=0.cc#	!
0.r	.	.	0.A	-nat	.	0.a	.	.	0.cc	-nat
=100	=100	=100	=100	=100	=100	=100	=100	=100	=100	=100
1.F	To-	.	1c	Tri-	.	1.f	Tri-	.	1.a	Tri-
.	.	.	1c	-nus	.	.	.	.	.	.
2F\	-ti-	.	.	.	.	2f\	-nus	.	2b\	.
1D	-us	.	1d	et	.	1f	et	.	2cc\	-nus
.	.	.	.	.	.	.	.	.	2dd\	et
*	*	*	*custos:e	*	*	*	*	*	*	*
!	!	!	!LO:LB:g=original	!	!	!	!	!	!	!
=101	=101	=101	=101	=101	=101	=101	=101	=101	=101	=101
0C	Mun-	.	0e	V-	.	0g	V-	.	0ee	V-
1C	-di	.	1e	-nus	.	1g	-nus	.	1ee	-nus
*	*	*	*	*	*	*custos:g	*	*	*	*
!	!	!	!	!	!	!LO:LB:g=original	!	!	!LO:LB:g=original	!
=102	=102	=102	=102	=102	=102	=102	=102	=102	=102	=102
*	*	*	*	*	*	*	*ij	*	*	*
1.G	ſe-	.	1.d	Tri-	.	1.g	Tri-	.	1.b	Tri-
2F\	-ri-	.	2A/	-nus	.	2d\	-nus	.	2a\	-nus
1E	-em	.	1B	et	.	1e	et	.	1g	et
=103	=103	=103	=103	=103	=103	=103	=103	=103	=103	=103
1D	gu-	.	1d	V-	.	1f	V-	.	1a	V-
0A	-ber-	.	1d	.	.	0e	.	.	0a	-nus
!	!	!	!LO:SIC:v:s=1c#	!	!	!	!	!	!	!
.	.	.	1c	-nus	.	.	.	.	.	.
=104	=104	=104	=104	=104	=104	=104	=104	=104	=104-	=104
*	*	*	*	*	*	*	*	*	*	*
0.D	-nat	.	0.d	.	.	0.f#Xi	-nus	.	0.a	.
=105	=105	=105	=105	=105	=105	=105	=105	=105	=105	=105
*	*	*	*	*ij	*	*	*	*	*	*ij
!	!	!	!	!	!	!LO:N:acc=-	!	!	!	!
00.r	.	.	1d	Tri-	.	1fni	Tri-	.	1a	Tri-
.	.	.	1c	-nus	.	1e	-nus	.	1a	-nus
.	.	.	1d	et	.	1f	et	.	1a	et
=106	=106	=106	=106	=106	=106	=106	=106	=106	=106	=106
.	.	.	2G/	V-	.	0g	V-	.	2b\	V-
.	.	.	2A/	.	.	.	.	.	2cc\	.
.	.	.	2B/	.	.	.	.	.	2dd\	.
.	.	.	2c\	.	.	.	.	.	4cc\	.
.	.	.	.	.	.	.	.	.	4b\	.
.	.	.	1d	.	.	1f#Xi	.	.	1a	.
=107	=107	=107	=107	=107	=107	=107	=107	=107	=107	=107
0.r	.	.	0.G	-nus	.	0.g	-nus	.	0.b	-nus
*	*	*	*	*	*	*	*Xij	*	*	*Xij
=108	=108	=108	=108	=108	=108	=108	=108	=108	=108	=108
1G	Tri-	.	1B	Tri-	.	1g	Tri-	.	1dd	Tri-
1F	-nus	.	1A	-nus	.	1a	-nus	.	1dd	-nus
1G	et	.	1B	et	.	1g	et	.	1dd	et
=109	=109	=109	=109	=109	=109	=109	=109	=109	=109-	=109
2C/	.	.	0c	V-	.	2e\	V-	.	0ee	V-
2D/	U-	.	.	.	.	2f\	.	.	.	.
2E/	.	.	.	.	.	0g	.	.	.	.
2F/	.	.	.	.	.	.	.	.	.	.
1G	.	.	1B	.	.	.	.	.	1dd	.
=110	=110	=110	=110	=110	=110	=110	=110	=110	=110-	=110
0.C	-nus	.	1c,	-nus	.	1g	-nus	.	0.cc	-nus
*	*	*	*	*Xij	*	*	*	*	*	*
.	.	.	1c	a-	.	1e	a-	.	.	.
.	.	.	1d	-men	.	1f	-men	.	.	.
!LO:LB:g=original	!	!	!LO:LB:g=original	!	!	!LO:LB:g=original	!	!	!LO:LB:g=original	!
=111-	=111	=111	=111-	=111	=111	=111	=111	=111	=111-	=111
00.r	.	.	1.e	a-	.	1.g	a-	.	1r	.
.	.	.	.	.	.	.	.	.	1b	a-
.	.	.	2d\	.	.	2f\	.	.	.	.
.	.	.	1c	.	.	1e	.	.	1cc	-men
=112	=112	=112	=112	=112	=112	=112	=112	=112	=112	=112
.	.	.	1B	.	.	1d	-men	.	1.dd	a-
*	*	*	*	*	*	*	*ij	*	*	*
.	.	.	2G\	.	.	1.d	a-	.	.	.
.	.	.	2A\	.	.	.	.	.	2cc\	.
.	.	.	2B\	.	.	.	.	.	1b	.
.	.	.	2c\	.	.	2e\	.	.	.	.
=113	=113	=113	=113	=113	=113	=113	=113	=113	=113	=113
1r	.	.	1.d	.	.	0f	.	.	0a	-men
1D	a-	.	.	.	.	.	.	.	.	.
.	.	.	2c\	.	.	.	.	.	.	.
1E	-men	.	1B	.	.	1g	-men	.	1g	.
=114	=114	=114	=114	=114	=114	=114	=114	=114	=114	=114
1.F	a-	.	0A	.	.	1.a	a-	.	1r	.
*	*	*	*	*	*	*	*	*	*	*ij
.	.	.	.	.	.	.	.	.	1cc	a-
2E\	.	.	.	.	.	2g\	.	.	.	.
1D	.	.	1B	-men	.	1f	.	.	1dd	-men
=115	=115	=115	=115	=115	=115	=115	=115	=115	=115	=115
1C	-men	.	1.c	a-	.	1e	-men	.	1.ee	a-
2AA/	.	.	.	.	.	2c\	.	.	.	.
2BB/	a-	.	2B\	.	.	2d\	a-	.	2dd\	.
2C/	.	.	1A	.	.	2e\	.	.	1cc	.
2D/	.	.	.	.	.	2f\	.	.	.	.
=116	=116	=116	=116	=116	=116	=116	=116	=116	=116	=116
1E	.	.	1G	.	.	0g	.	.	1b	.
1C	.	.	1e	.	.	.	.	.	1cc	.
1D	.	.	1d	.	.	1f#Xi	.	.	1a	.
=117	=117	=117	=117-	=117	=117	=117-	=117	=117	=117-	=117
0.GG	-men	.	0.d	-men	.	0.g	-men	.	0.b	-men
=118	=118	=118	=118	=118	=118	=118	=118	=118	=118	=118
*M2/2	*	*	*M2/2	*	*	*M2/2	*	*	*M2/2	*
*met(c)	*	*	*met(c)	*ij	*	*met(c)	*	*	*met(c)	*
!!LO:TX:t=P:problem:oznaczenie c na kresce taktowej
0C	A-	.	2.e\	a-	.	0g	a-	.	2.cc\	a-
.	.	.	4d\	.	.	.	.	.	4dd\	.
=119	=119	=119	=119-	=119	=119	=119-	=119	=119	=119-	=119
.	.	.	1c	.	.	.	.	.	1ee	.
=120	=120	=120	=120-	=120	=120	=120	=120	=120	=120-	=120
!LO:N:vis=0	!	!	!	!	!	!LO:N:vis=0	!	!	!	!
0.GG;	-men.	.	0.Bl;	-men	.	0.g;<	-men	.	0.dd	-men
*	*	*	*	*Xij	*	*	*Xij	*	*	*Xij
==	==	==	==	==	==	==	==	==	==	==
*-	*-	*-	*-	*-	*-	*-	*-	*-	*-	*-
!!!system-decoration: [s1,s2,s3,s4]
!!!RDF**kern: > = above
!!!RDF**kern: < = below
!!!RDF**kern: i = editorial accidental
!!!RDF**kern: l = terminal long
!!!ENC: Andrzej Gręziak
!!!EED: Katarzyna Serwa
!!!END: 2024-04-13
!!!EEV: 2025-03-06
